**kern	**kern	**dynam
*part1	*part1	*part1
*staff2	*staff1	*
*I"Piano	*	*
*clefG2	*clefG2	*
*k[b-]	*k[b-]	*
=1	=1	=1
2CC	12r	mf
.	12B-L	>
.	12cJ	.
.	12eL	.
.	12c	.
.	12B-J	.
=	=	=
2FF	12r;	.
.	12AL	] p
.	12cJ	<
.	12fL	.
.	12c	.
.	12AJ	.
=	=	=
*^	*^	*
4F	[2FF [2C	(4a	12AL<	[ mp
.	.	.	12c<	.
.	.	.	12fJ	.
4G	.	4b-	12B-L<	.
.	.	.	12c<	.
.	.	.	12eJ	.
=	=	=	=	=
2E	2FF] 2C]	2g)	12GL<	.
.	.	.	12c<	.
.	.	.	12eJ<	.
.	.	.	12GL<	.
.	.	.	12c<	.
.	.	.	12eJ<	.
=	=	=	=	=
!	!	!LO:TX:a:i:t=cresc.	!	!
(4G	[2FF [2C	(4b-	12B-L	.
.	.	.	12c	.
.	.	.	12eJ	.
4B-)	.	4dd	12dL	.
.	.	.	12e	.
.	.	.	12gJ	.
=	=	=	=	=
2A	2FF] 2C]	2cc)	12cL	.
.	.	.	12f	.
.	.	.	12aJ	.
.	.	.	12cL	.
.	.	.	12f	.
.	.	.	12aJ	.
*v	*v	*	*	*
=	=	=	=
2D 2F 2G 2Bn	(4aa	12aL	f
.	.	12bn	.
.	.	12ddJ	.
.	4gg	12gL	.
.	.	12b	.
.	.	12ddJ	.
*	*v	*v	*
=	=	=
*-	*-	*-
!!!system-decoration: {(s1,s2)}
!!!RDF**kern: < = below
